X: 1
T: BONNY GREEN
S: NDT
O: Bucknell
B: Morris Ring
S: MDT
Z: 2005 John Chambers <jc@trillian.mit.edu>
M: 6/8
L: 1/8
Q: 3/8=100
P: A.A2B2C
K: D
P: A
|:A | dcd efe | dcB ABc | dcd BAG |FGE D3 :|
P: B
|: EFG FED | EFG ABc | dcd BAG | FGE D3 :|
P: C
|[M:3/8] D3 |\
 [M:6/8] d2c d3 | e2f e3 | d2c B3 | A2B c3 |
         d2c d3 | B2A G3 |(2FG E3 | D3  D3 |
         d2c d3 | e2f e3 | d2c B3 | A2B c3 |
         d2c d3 | B2A G3 |[M:9/8](2FG E3 D3 ||
